apps/teka/src/routes/apps/calcular-flsm/i.svg

<!--
asi:Redes Locales
title:Calculadora de FLSM para IPs
body:Escribes una IP con CIDR y varios rangos de dispositivos, y divide todo con FLSM por ti.
-->
<svg
    width="25"
    height="25"
    viewBox="0 0 140 140"
    fill="none"
    xmlns="http://www.w3.org/2000/svg"
>
    <path
        d="M105 70C105 50.67 89.33 35 70 35C50.67 35 35 50.67 35 70C35 89.33 50.67 105 70 105V120C42.3858 120 20 97.6142 20 70C20 42.3858 42.3858 20 70 20C97.6142 20 120 42.3858 120 70C120 97.6142 97.6142 120 70 120V105C89.33 105 105 89.33 105 70Z"
        fill="currentColor"
    />
    <path
        d="M85 70C85 61.7157 78.2843 55 70 55C61.7157 55 55 61.7157 55 70C55 78.2843 61.7157 85 70 85V100C53.4315 100 40 86.5685 40 70C40 53.4315 53.4315 40 70 40C86.5685 40 100 53.4315 100 70C100 86.5685 86.5685 100 70 100V85C78.2843 85 85 78.2843 85 70Z"
        fill="currentColor"
    />
    <path
        d="M70 0C79.1925 1.0962e-07 88.2953 1.81029 96.7881 5.32812C105.281 8.84595 112.997 14.0029 119.497 20.5029C125.997 27.003 131.154 34.7192 134.672 43.2119C138.19 51.7047 140 60.8075 140 70H124.6C124.6 62.8298 123.187 55.7298 120.443 49.1055C117.785 42.6881 113.928 36.8389 109.08 31.8701L108.608 31.3916C103.697 26.48 97.8941 22.5527 91.5137 19.8174L90.8945 19.5566C84.2702 16.8127 77.1702 15.4004 70 15.4004V0Z"
        fill="currentColor"
    />
    <path
        d="M15.4004 70C15.4004 77.1702 16.8127 84.2702 19.5566 90.8945C22.3005 97.5188 26.3216 103.538 31.3916 108.608C36.4616 113.678 42.4812 117.699 49.1055 120.443C55.7298 123.187 62.8298 124.6 70 124.6V140L69.1387 139.995C60.5262 139.889 52.0072 138.194 44.0098 134.996L43.2119 134.672C34.9844 131.264 27.4855 126.318 21.1152 120.103L20.5029 119.497C14.206 113.2 9.16989 105.762 5.66309 97.582L5.32812 96.7881C1.8103 88.2953 -2.33589e-10 79.1925 0 70H15.4004Z"
        fill="currentColor"
    />
</svg>

<!--
asi:Redes Locales
title:Calculadora de FLSM para IPs
body:Escribes una IP con CIDR y varios rangos de dispositivos, y divide todo con FLSM por ti.
-->
<svg xmlns="http://www.w3.org/2000/svg" width="25" height="25" fill="none" viewBox="0 0 140 140"><path fill="currentColor" d="M105 70c0-19.33-15.67-35-35-35S35 50.67 35 70s15.67 35 35 35v15c-27.614 0-50-22.386-50-50s22.386-50 50-50 50 22.386 50 50-22.386 50-50 50v-15c19.33 0 35-15.67 35-35"/><path fill="currentColor" d="M85 70c0-8.284-6.716-15-15-15s-15 6.716-15 15 6.716 15 15 15v15c-16.568 0-30-13.431-30-30 0-16.568 13.432-30 30-30 16.569 0 30 13.432 30 30 0 16.569-13.431 30-30 30V85c8.284 0 15-6.716 15-15M70 0a70 70 0 0 1 70 70h-15.4a54.6 54.6 0 0 0-15.52-38.13l-.472-.478a54.6 54.6 0 0 0-17.094-11.575l-.62-.26A54.6 54.6 0 0 0 70 15.4zM15.4 70A54.6 54.6 0 0 0 70 124.6V140l-.861-.005a70 70 0 0 1-25.13-4.999l-.797-.324a70 70 0 0 1-22.097-14.569l-.612-.606a70 70 0 0 1-14.84-21.915l-.335-.794A70 70 0 0 1 0 70z"/></svg>
